svg/u26d3.svg

<svg viewBox="0 0 128 128" xmlns="http://www.w3.org/2000/svg">
  <g>
    <g>
      <path d="M36.04,98.76c-10.66,0-19.33,8.67-19.33,19.33v5.9h10.47v-5.9c0-4.89,3.97-8.86,8.86-8.86 s8.86,3.97,8.86,8.86v5.9h10.47v-5.9C55.37,107.44,46.7,98.76,36.04,98.76z" fill="#84B0C1"/>
      <path d="M36.04,38.84c-10.66,0-19.33,8.67-19.33,19.33v11.65c0,10.66,8.67,19.33,19.33,19.33 c10.66,0,19.33-8.67,19.33-19.33V58.18C55.37,47.52,46.7,38.84,36.04,38.84z M44.89,69.82c0,4.89-3.97,8.86-8.86,8.86 s-8.86-3.97-8.86-8.86V58.18c0-4.89,3.97-8.86,8.86-8.86s8.86,3.97,8.86,8.86V69.82z" fill="#84B0C1"/>
      <path d="M36.04,29.24c10.66,0,19.33-8.67,19.33-19.33V4H44.89v5.91c0,4.88-3.97,8.86-8.86,8.86 s-8.86-3.97-8.86-8.86V4H16.7v5.91C16.7,20.56,25.38,29.24,36.04,29.24z" fill="#84B0C1"/>
    </g>
    <g>
      <path d="M91.96,68.8c-10.66,0-19.33,8.67-19.33,19.33v11.65c0,10.66,8.67,19.33,19.33,19.33 s19.33-8.67,19.33-19.33V88.14C111.3,77.48,102.62,68.8,91.96,68.8z M100.82,99.78c0,4.88-3.97,8.86-8.86,8.86 c-4.89,0-8.86-3.97-8.86-8.86V88.14c0-4.89,3.97-8.86,8.86-8.86c4.88,0,8.86,3.97,8.86,8.86V99.78z" fill="#84B0C1"/>
      <path d="M91.96,8.88c-10.66,0-19.33,8.67-19.33,19.33v11.65c0,10.66,8.67,19.33,19.33,19.33 s19.33-8.67,19.33-19.33V28.22C111.3,17.56,102.62,8.88,91.96,8.88z M100.82,39.86c0,4.89-3.97,8.86-8.86,8.86 c-4.89,0-8.86-3.97-8.86-8.86V28.22c0-4.88,3.97-8.86,8.86-8.86c4.88,0,8.86,3.97,8.86,8.86V39.86z" fill="#84B0C1"/>
    </g>
    <g>
      <path d="M36.02,89.16c-2.89,0-5.62-0.66-8.09-1.8c0.22-3.78,0.92-7.54,1.74-11.25 c0.01-0.03,0.02-0.07,0.02-0.1c1.61,1.65,3.85,2.67,6.33,2.67c2.68,0,5.07-1.2,6.7-3.08c0.03,0.15,0.06,0.3,0.09,0.45 c0.28,1.49,0.59,2.99,1.25,4.34c0.67,1.36,1.75,2.57,3.18,3.08c0.75,0.27,1.6,0.29,2.37,0.08C46.12,87.01,41.32,89.16,36.02,89.16 z" fill="#2F7889"/>
      <path d="M36.02,29.24c-2.89,0-5.62-0.66-8.09-1.8c0.22-3.78,0.92-7.54,1.74-11.25 c0.01-0.03,0.02-0.07,0.02-0.1c1.61,1.65,3.85,2.67,6.33,2.67c2.68,0,5.07-1.2,6.7-3.08c0.03,0.15,0.06,0.3,0.09,0.45 c0.28,1.49,0.59,2.99,1.25,4.34c0.67,1.36,1.75,2.57,3.18,3.08c0.75,0.27,1.6,0.29,2.37,0.08C46.12,27.1,41.32,29.24,36.02,29.24z " fill="#2F7889"/>
      <path d="M48.15,43.14c-0.93,0.2-1.83,0.71-2.47,1.42c-1.28,1.42-1.74,3.38-1.97,5.27 c-0.14,1.1-0.22,2.21-0.4,3.31c-1.6-2.31-4.27-3.82-7.28-3.82c-2.73,0-5.17,1.24-6.8,3.19c-0.41-3.87-0.65-7.76-0.69-11.65 c0-0.17,0-0.33,0-0.5c2.3-0.97,4.83-1.51,7.49-1.51C40.61,38.84,44.83,40.46,48.15,43.14z" fill="#2F7889"/>
    </g>
    <g>
      <path d="M91.98,59.2c-2.89,0-5.62-0.66-8.09-1.8c0.22-3.78,0.92-7.54,1.74-11.25 c0.01-0.03,0.02-0.07,0.02-0.1c1.61,1.65,3.85,2.67,6.33,2.67c2.68,0,5.07-1.2,6.7-3.08c0.03,0.15,0.06,0.3,0.09,0.45 c0.28,1.49,0.59,2.99,1.25,4.34c0.67,1.36,1.75,2.57,3.18,3.08c0.75,0.27,1.6,0.29,2.37,0.08C102.08,57.05,97.28,59.2,91.98,59.2z " fill="#2F7889"/>
      <path d="M104.11,13.18c-0.93,0.2-1.83,0.71-2.47,1.42c-1.28,1.42-1.74,3.38-1.97,5.27 c-0.14,1.1-0.22,2.21-0.4,3.31c-1.6-2.31-4.27-3.82-7.28-3.82c-2.73,0-5.17,1.24-6.8,3.19c-0.41-3.87-0.65-7.76-0.69-11.65 c0-0.17,0-0.33,0-0.5c2.3-0.97,4.83-1.51,7.49-1.51C96.57,8.88,100.79,10.5,104.11,13.18z" fill="#2F7889"/>
    </g>
    <g>
      <path d="M91.98,119.11c-2.89,0-5.62-0.66-8.09-1.8c0.22-3.78,0.92-7.54,1.74-11.25 c0.01-0.03,0.02-0.07,0.02-0.1c1.61,1.65,3.85,2.67,6.33,2.67c2.68,0,5.07-1.2,6.7-3.08c0.03,0.15,0.06,0.3,0.09,0.45 c0.28,1.49,0.59,2.99,1.25,4.34c0.67,1.36,1.75,2.57,3.18,3.08c0.75,0.27,1.6,0.29,2.37,0.08 C102.08,116.97,97.28,119.11,91.98,119.11z" fill="#2F7889"/>
      <path d="M104.11,73.1c-0.93,0.2-1.83,0.71-2.47,1.42c-1.28,1.42-1.74,3.38-1.97,5.27 c-0.14,1.1-0.22,2.21-0.4,3.31c-1.6-2.31-4.27-3.82-7.28-3.82c-2.73,0-5.17,1.24-6.8,3.19c-0.41-3.87-0.65-7.76-0.69-11.65 c0-0.17,0-0.33,0-0.5c2.3-0.97,4.83-1.51,7.49-1.51C96.57,68.8,100.79,70.42,104.11,73.1z" fill="#2F7889"/>
    </g>
    <path d="M91.96,41.25c-2.89,0-5.24,2.35-5.24,5.24v35.02c0,2.89,2.35,5.24,5.24,5.24s5.24-2.35,5.24-5.24 V46.49C97.2,43.6,94.85,41.25,91.96,41.25z" fill="#84B0C1"/>
    <path d="M91.96,26.83c2.89,0,5.24-2.35,5.24-5.24V4H86.73v17.59C86.73,24.48,89.08,26.83,91.96,26.83z" fill="#84B0C1"/>
    <path d="M91.96,101.17c-2.89,0-5.24,2.35-5.24,5.24V124H97.2v-17.59C97.2,103.52,94.85,101.17,91.96,101.17z " fill="#84B0C1"/>
    <path d="M36.44,71.63c-2.89,0-5.24,2.35-5.24,5.24v35.02c0,2.89,2.35,5.24,5.24,5.24 c2.89,0,5.24-2.35,5.24-5.24V76.87C41.68,73.98,39.33,71.63,36.44,71.63z" fill="#84B0C1"/>
    <path d="M36.44,11.71c-2.89,0-5.24,2.35-5.24,5.24v35.02c0,2.89,2.35,5.24,5.24,5.24 c2.89,0,5.24-2.35,5.24-5.24V16.95C41.68,14.06,39.33,11.71,36.44,11.71z" fill="#84B0C1"/>
    <path d="M33.52,17.81c-0.54,3.4-0.69,6.87-0.07,10.25c0.27,1.49,1.3,2.67,2.27,0.72 c1.73-3.45,3.23-7.97,3.29-11.92c0.02-1.45-0.65-3.01-2.32-2.99C34.67,13.91,33.82,15.94,33.52,17.81z" fill="#A8E3F0"/>
    <path d="M33.52,77.16c-0.54,3.4-0.69,6.87-0.07,10.25c0.27,1.49,1.3,2.67,2.27,0.72 c1.73-3.45,3.23-7.97,3.29-11.92c0.02-1.45-0.65-3.01-2.32-2.99C34.67,73.26,33.82,75.3,33.52,77.16z" fill="#A8E3F0"/>
    <path d="M88.8,47.49c-0.54,3.4-0.69,6.87-0.07,10.25c0.27,1.49,1.3,2.67,2.27,0.72 c1.73-3.45,3.23-7.97,3.29-11.92c0.02-1.45-0.65-3.01-2.32-2.99C89.95,43.59,89.1,45.62,88.8,47.49z" fill="#A8E3F0"/>
    <path d="M88.8,106.84c-0.54,3.4-0.69,6.87-0.07,10.25c0.27,1.49,1.3,2.67,2.27,0.72 c1.73-3.45,3.23-7.97,3.29-11.92c0.02-1.45-0.65-3.01-2.32-2.99C89.95,102.94,89.1,104.97,88.8,106.84z" fill="#A8E3F0"/>
  </g>
</svg>

<svg viewBox="0 0 128 128" xmlns="http://www.w3.org/2000/svg">
  <defs/>
  <path d="M36.04,98.76 C25.38,98.76 16.71,107.43 16.71,118.09 L16.71,123.99 L27.18,123.99 L27.18,118.09 C27.18,113.2 31.15,109.23 36.04,109.23 C40.93,109.23 44.9,113.2 44.9,118.09 L44.9,123.99 L55.37,123.99 L55.37,118.09 C55.37,107.44 46.7,98.76 36.04,98.76 Z" fill="#84B0C1"/>
  <path d="M36.04,38.84 C25.38,38.84 16.71,47.51 16.71,58.17 L16.71,69.82 C16.71,80.48 25.38,89.15 36.04,89.15 C46.7,89.15 55.37,80.48 55.37,69.82 L55.37,58.18 C55.37,47.52 46.7,38.84 36.04,38.84 Z M44.89,69.82 C44.89,74.71 40.92,78.68 36.03,78.68 C31.14,78.68 27.17,74.71 27.17,69.82 L27.17,58.18 C27.17,53.29 31.14,49.32 36.03,49.32 C40.92,49.32 44.89,53.29 44.89,58.18 L44.89,69.82 Z" fill="#84B0C1"/>
  <path d="M36.04,29.24 C46.7,29.24 55.37,20.57 55.37,9.91 L55.37,4 L44.89,4 L44.89,9.91 C44.89,14.79 40.92,18.77 36.03,18.77 C31.14,18.77 27.17,14.8 27.17,9.91 L27.17,4 L16.7,4 L16.7,9.91 C16.7,20.56 25.38,29.24 36.04,29.24 Z" fill="#84B0C1"/>
  <path d="M91.96,68.8 C81.3,68.8 72.63,77.47 72.63,88.13 L72.63,99.78 C72.63,110.44 81.3,119.11 91.96,119.11 C102.62,119.11 111.29,110.44 111.29,99.78 L111.29,88.14 C111.3,77.48 102.62,68.8 91.96,68.8 Z M100.82,99.78 C100.82,104.66 96.85,108.64 91.96,108.64 C87.07,108.64 83.1,104.67 83.1,99.78 L83.1,88.14 C83.1,83.25 87.07,79.28 91.96,79.28 C96.84,79.28 100.82,83.25 100.82,88.14 L100.82,99.78 Z" fill="#84B0C1"/>
  <path d="M91.96,8.88 C81.3,8.88 72.63,17.55 72.63,28.21 L72.63,39.86 C72.63,50.52 81.3,59.19 91.96,59.19 C102.62,59.19 111.29,50.52 111.29,39.86 L111.29,28.22 C111.3,17.56 102.62,8.88 91.96,8.88 Z M100.82,39.86 C100.82,44.75 96.85,48.72 91.96,48.72 C87.07,48.72 83.1,44.75 83.1,39.86 L83.1,28.22 C83.1,23.34 87.07,19.36 91.96,19.36 C96.84,19.36 100.82,23.33 100.82,28.22 L100.82,39.86 Z" fill="#84B0C1"/>
  <path d="M36.02,89.16 C33.13,89.16 30.4,88.5 27.93,87.36 C28.15,83.58 28.85,79.82 29.67,76.11 C29.68,76.08 29.69,76.04 29.69,76.01 C31.3,77.66 33.54,78.68 36.02,78.68 C38.7,78.68 41.09,77.48 42.72,75.6 C42.75,75.75 42.78,75.9 42.81,76.05 C43.09,77.54 43.4,79.04 44.06,80.39 C44.73,81.75 45.81,82.96 47.24,83.47 C47.99,83.74 48.84,83.76 49.61,83.55 C46.12,87.01 41.32,89.16 36.02,89.16 Z" fill="#2F7889"/>
  <path d="M36.02,29.24 C33.13,29.24 30.4,28.58 27.93,27.44 C28.15,23.66 28.85,19.9 29.67,16.19 C29.68,16.16 29.69,16.12 29.69,16.09 C31.3,17.74 33.54,18.76 36.02,18.76 C38.7,18.76 41.09,17.56 42.72,15.68 C42.75,15.83 42.78,15.98 42.81,16.13 C43.09,17.62 43.4,19.12 44.06,20.47 C44.73,21.83 45.81,23.04 47.24,23.55 C47.99,23.82 48.84,23.84 49.61,23.63 C46.12,27.1 41.32,29.24 36.02,29.24 Z" fill="#2F7889"/>
  <path d="M48.15,43.14 C47.22,43.34 46.32,43.85 45.68,44.56 C44.4,45.98 43.94,47.94 43.71,49.83 C43.57,50.93 43.49,52.04 43.31,53.14 C41.71,50.83 39.04,49.32 36.03,49.32 C33.3,49.32 30.86,50.56 29.23,52.51 C28.82,48.64 28.58,44.75 28.54,40.86 C28.54,40.69 28.54,40.53 28.54,40.36 C30.84,39.39 33.37,38.85 36.03,38.85 C40.61,38.84 44.83,40.46 48.15,43.14 Z" fill="#2F7889"/>
  <path d="M91.98,59.2 C89.09,59.2 86.36,58.54 83.89,57.4 C84.11,53.62 84.81,49.86 85.63,46.15 C85.64,46.12 85.65,46.08 85.65,46.05 C87.26,47.7 89.5,48.72 91.98,48.72 C94.66,48.72 97.05,47.52 98.68,45.64 C98.71,45.79 98.74,45.94 98.77,46.09 C99.05,47.58 99.36,49.08 100.02,50.43 C100.69,51.79 101.77,53 103.2,53.51 C103.95,53.78 104.8,53.8 105.57,53.59 C102.08,57.05 97.28,59.2 91.98,59.2 Z" fill="#2F7889"/>
  <path d="M104.11,13.18 C103.18,13.38 102.28,13.89 101.64,14.6 C100.36,16.02 99.9,17.98 99.67,19.87 C99.53,20.97 99.45,22.08 99.27,23.18 C97.67,20.87 95,19.36 91.99,19.36 C89.26,19.36 86.82,20.6 85.19,22.55 C84.78,18.68 84.54,14.79 84.5,10.9 C84.5,10.73 84.5,10.57 84.5,10.4 C86.8,9.43 89.33,8.89 91.99,8.89 C96.57,8.88 100.79,10.5 104.11,13.18 Z" fill="#2F7889"/>
  <path d="M91.98,119.11 C89.09,119.11 86.36,118.45 83.89,117.31 C84.11,113.53 84.81,109.77 85.63,106.06 C85.64,106.03 85.65,105.99 85.65,105.96 C87.26,107.61 89.5,108.63 91.98,108.63 C94.66,108.63 97.05,107.43 98.68,105.55 C98.71,105.7 98.74,105.85 98.77,106 C99.05,107.49 99.36,108.99 100.02,110.34 C100.69,111.7 101.77,112.91 103.2,113.42 C103.95,113.69 104.8,113.71 105.57,113.5 C102.08,116.97 97.28,119.11 91.98,119.11 Z" fill="#2F7889"/>
  <path d="M104.11,73.1 C103.18,73.3 102.28,73.81 101.64,74.52 C100.36,75.94 99.9,77.9 99.67,79.79 C99.53,80.89 99.45,82 99.27,83.1 C97.67,80.79 95,79.28 91.99,79.28 C89.26,79.28 86.82,80.52 85.19,82.47 C84.78,78.6 84.54,74.71 84.5,70.82 C84.5,70.65 84.5,70.49 84.5,70.32 C86.8,69.35 89.33,68.81 91.99,68.81 C96.57,68.8 100.79,70.42 104.11,73.1 Z" fill="#2F7889"/>
  <path d="M91.96,41.25 C89.07,41.25 86.72,43.6 86.72,46.49 L86.72,81.51 C86.72,84.4 89.07,86.75 91.96,86.75 C94.85,86.75 97.2,84.4 97.2,81.51 L97.2,46.49 C97.2,43.6 94.85,41.25 91.96,41.25 Z" fill="#84B0C1"/>
  <path d="M91.96,26.83 C94.85,26.83 97.2,24.48 97.2,21.59 L97.2,4 L86.73,4 L86.73,21.59 C86.73,24.48 89.08,26.83 91.96,26.83 Z" fill="#84B0C1"/>
  <path d="M91.96,101.17 C89.07,101.17 86.72,103.52 86.72,106.41 L86.72,124 L97.2,124 L97.2,106.41 C97.2,103.52 94.85,101.17 91.96,101.17 Z" fill="#84B0C1"/>
  <path d="M36.44,71.63 C33.55,71.63 31.2,73.98 31.2,76.87 L31.2,111.89 C31.2,114.78 33.55,117.13 36.44,117.13 C39.33,117.13 41.68,114.78 41.68,111.89 L41.68,76.87 C41.68,73.98 39.33,71.63 36.44,71.63 Z" fill="#84B0C1"/>
  <path d="M36.44,11.71 C33.55,11.71 31.2,14.06 31.2,16.95 L31.2,51.97 C31.2,54.86 33.55,57.21 36.44,57.21 C39.33,57.21 41.68,54.86 41.68,51.97 L41.68,16.95 C41.68,14.06 39.33,11.71 36.44,11.71 Z" fill="#84B0C1"/>
  <path d="M33.52,17.81 C32.98,21.21 32.83,24.68 33.45,28.06 C33.72,29.55 34.75,30.73 35.72,28.78 C37.45,25.33 38.95,20.81 39.01,16.86 C39.03,15.41 38.36,13.85 36.69,13.87 C34.67,13.91 33.82,15.94 33.52,17.81 Z" fill="#A8E3F0"/>
  <path d="M33.52,77.16 C32.98,80.56 32.83,84.03 33.45,87.41 C33.72,88.9 34.75,90.08 35.72,88.13 C37.45,84.68 38.95,80.16 39.01,76.21 C39.03,74.76 38.36,73.2 36.69,73.22 C34.67,73.26 33.82,75.3 33.52,77.16 Z" fill="#A8E3F0"/>
  <path d="M88.8,47.49 C88.26,50.89 88.11,54.36 88.73,57.74 C89,59.23 90.03,60.41 91,58.46 C92.73,55.01 94.23,50.49 94.29,46.54 C94.31,45.09 93.64,43.53 91.97,43.55 C89.95,43.59 89.1,45.62 88.8,47.49 Z" fill="#A8E3F0"/>
  <path d="M88.8,106.84 C88.26,110.24 88.11,113.71 88.73,117.09 C89,118.58 90.03,119.76 91,117.81 C92.73,114.36 94.23,109.84 94.29,105.89 C94.31,104.44 93.64,102.88 91.97,102.9 C89.95,102.94 89.1,104.97 88.8,106.84 Z" fill="#A8E3F0"/>
</svg>
